modules/material-icons/icons/google-play.svg

<svg xmlns="http://www.w3.org/2000/svg" width="24" height="24"><path d="M3 20.5v-17c0-.59.34-1.11.84-1.35L13.69 12l-9.85 9.85c-.5-.25-.84-.76-.84-1.35m13.81-5.38L6.05 21.34l8.49-8.49 2.27 2.27m3.35-4.31c.34.27.59.69.59 1.19s-.22.9-.57 1.18l-2.29 1.32-2.5-2.5 2.5-2.5 2.27 1.31M6.05 2.66l10.76 6.22-2.27 2.27-8.49-8.49z"/></svg>

<?xml version="1.0" encoding="UTF-8"?><!DOCTYPE svg PUBLIC "-//W3C//DTD SVG 1.1//EN" "http://www.w3.org/Graphics/SVG/1.1/DTD/svg11.dtd"><svg xmlns="http://www.w3.org/2000/svg" xmlns:xlink="http://www.w3.org/1999/xlink" version="1.1" width="24" height="24" viewBox="0 0 24 24"><path d="M3,20.5V3.5C3,2.91 3.34,2.39 3.84,2.15L13.69,12L3.84,21.85C3.34,21.6 3,21.09 3,20.5M16.81,15.12L6.05,21.34L14.54,12.85L16.81,15.12M20.16,10.81C20.5,11.08 20.75,11.5 20.75,12C20.75,12.5 20.53,12.9 20.18,13.18L17.89,14.5L15.39,12L17.89,9.5L20.16,10.81M6.05,2.66L16.81,8.88L14.54,11.15L6.05,2.66Z" /></svg>
